OBS Studio/Fluent Dark Grey/media/media_previous.svg

<svg viewBox="64 64 896 896" xmlns="http://www.w3.org/2000/svg"><path d="m64 928v-832c0-8.6666 3.1667-16.167 9.5-22.5 6.3333-6.3333 13.833-9.4999 22.5-9.5 8.667 1e-4 16.167 3.1667 22.5 9.5 6.333 6.3334 9.5 13.833 9.5 22.5v832c0 8.667-3.167 16.167-9.5 22.5s-13.833 9.5-22.5 9.5c-8.6667 0-16.167-3.167-22.5-9.5s-9.5-13.833-9.5-22.5zm191.5-416c0-13.667 3.167-26.333 9.5-38s15.167-21.333 26.5-29l544.5-358.5c13.667-8.9999 28.333-13.5 44-13.5 10.667 1e-4 20.833 2.1667 30.5 6.5 9.667 4.3334 18.167 10.167 25.5 17.5 7.333 7.333 13.167 15.833 17.5 25.5s6.5 19.833 6.5 30.5v718c0 11-2.167 21.333-6.5 31s-10.083 18.083-17.25 25.25-15.583 12.917-25.25 17.25-20 6.5-31 6.5c-16 0-30.667-4.5-44-13.5l-544.5-358.5c-11.333-7.333-20.167-16.917-26.5-28.75s-9.5-24.583-9.5-38.25zm640.5 359v-718c0-4.333-1.583-8.083-4.75-11.25s-6.917-4.75-11.25-4.75c-3 0-6 1-9 3l-544.5 358.5c-4.667 3-7 7.5-7 13.5 0 2.667 0.583 5.167 1.75 7.5s2.917 4.333 5.25 6l544.5 358.5c3.333 2 6.667 3 10 3 4 0 7.5-1.667 10.5-5s4.5-7 4.5-11z" fill="#fff"></path></svg>

<!-- Exported by Character Map UWP -->
<svg height="100%" viewBox="64 64 896 896" width="100%" xmlns="http://www.w3.org/2000/svg" xmlns:xlink="http://www.w3.org/1999/xlink">
  <path d="M64,928L64,96C64,87.3334 67.1667,79.8334 73.5,73.5C79.8333,67.1667 87.3333,64.0001 96,64C104.667,64.0001 112.167,67.1667 118.5,73.5C124.833,79.8334 128,87.3334 128,96L128,928C128,936.667 124.833,944.167 118.5,950.5C112.167,956.833 104.667,960 96,960C87.3333,960 79.8333,956.833 73.5,950.5C67.1667,944.167 64,936.667 64,928ZM255.5,512C255.5,498.333 258.667,485.667 265,474C271.333,462.333 280.167,452.667 291.5,445L836,86.5C849.667,77.5001 864.333,73.0001 880,73C890.667,73.0001 900.833,75.1667 910.5,79.5C920.167,83.8334 928.667,89.6667 936,97C943.333,104.333 949.167,112.833 953.5,122.5C957.833,132.167 960,142.333 960,153L960,871C960,882 957.833,892.333 953.5,902C949.167,911.667 943.417,920.083 936.25,927.25C929.083,934.417 920.667,940.167 911,944.5C901.333,948.833 891,951 880,951C864,951 849.333,946.5 836,937.5L291.5,579C280.167,571.667 271.333,562.083 265,550.25C258.667,538.417 255.5,525.667 255.5,512ZM896,871L896,153C896,148.667 894.417,144.917 891.25,141.75C888.083,138.583 884.333,137 880,137C877,137 874,138 871,140L326.5,498.5C321.833,501.5 319.5,506 319.5,512C319.5,514.667 320.083,517.167 321.25,519.5C322.417,521.833 324.167,523.833 326.5,525.5L871,884C874.333,886 877.667,887 881,887C885,887 888.5,885.333 891.5,882C894.5,878.667 896,875 896,871Z" fill="#FFFFFF" fill-opacity="1">
  </path>
</svg>
